X: 5028
T: Brian Luby's
R: polka
M: 2/4
K: Dmajor
|:fg/f/ ef/e/|dA d>c|BG GA|BA/G/ FA|
fg/f/ e/g/f/e/|dA d2|BA gc|ed d2:|
|:Af fe/f/|Ag gf/g/|Af f>a|g/f/e/d/ BA/^G/|
Af f2|Ag gf/g/|fe/f/ gc|ed d2:|

